brandFactory_export/2.Regular/Buscar analizar virus _2Regular.svg

<?xml version="1.0" encoding="UTF-8"?>
<svg width="24px" height="24px" viewBox="0 0 24 24" version="1.1" xmlns="http://www.w3.org/2000/svg" xmlns:xlink="http://www.w3.org/1999/xlink">
    <title>2.Regular/Buscar analizar virus _2Regular</title>
    <g id="Symbols" stroke="none" stroke-width="1" fill="none" fill-rule="evenodd">
        <g id="2.Regular/Buscar-analizar-virus-_2Regular" fill="#5CB615" fill-rule="nonzero">
            <path d="M9.38823529,17.1966387 C13.7546218,17.1966387 17.3109244,13.6739496 17.3109244,9.34117647 C17.3109244,5.01176471 13.7579832,1.48907563 9.38823529,1.48907563 C5.02184874,1.48907563 1.46554622,5.01176471 1.46554622,9.34117647 C1.46890756,13.6739496 5.02184874,17.1966387 9.38823529,17.1966387 Z M23.4084034,22.4134454 C23.6941176,22.6991597 23.6941176,23.1596639 23.4084034,23.4420168 C23.2638655,23.5831933 23.0789916,23.6537815 22.8907563,23.6537815 C22.702521,23.6537815 22.5142857,23.5831933 22.3731092,23.4420168 L15.3815126,16.5109244 C13.7546218,17.8453782 11.6705882,18.6487395 9.39159664,18.6487395 C4.20504202,18.6487395 0.00336134454,14.4806723 0.00336134454,9.33781513 C0.00336134454,4.19831933 4.20840336,0.0302521008 9.39159664,0.0302521008 C14.5747899,0.0302521008 18.7798319,4.19831933 18.7798319,9.33781513 C18.7798319,11.697479 17.8857143,13.8453782 16.4268908,15.4890756 L23.4084034,22.4134454 Z M9.38823529,12.810084 C11.1428571,12.810084 11.6235294,12.1680672 11.6235294,9.82184874 C11.6235294,8.34957983 11.4117647,7.56638655 10.9142857,7.19327731 C10.5915966,6.95462185 10.0941176,6.83697479 9.38823529,6.83697479 C8.6789916,6.83697479 8.17815126,6.95462185 7.85546218,7.2 C7.36470588,7.57310924 7.15294118,8.35966387 7.15294118,9.82184874 C7.15294118,12.1680672 7.63361345,12.810084 9.38823529,12.810084 Z M9.39495798,5.05210084 C7.89579832,5.05210084 7.89579832,5.35462185 7.89579832,5.77478992 L7.89579832,5.79159664 C8.31932773,5.65042017 8.80672269,5.57310924 9.38823529,5.57310924 C9.97310924,5.57310924 10.4638655,5.65042017 10.8907563,5.79159664 C10.8907563,5.78151261 10.8941176,5.77815126 10.8941176,5.77142857 C10.8941176,5.35462185 10.8941176,5.05210084 9.39495798,5.05210084 Z M13.6201681,8.75966387 C13.9731092,8.75966387 14.2588235,9.04201681 14.2588235,9.39159664 L14.2588235,10.2890756 C14.2588235,10.6386555 13.9731092,10.9210084 13.6201681,10.9210084 C13.2672269,10.9210084 12.9848739,10.6386555 12.9848739,10.2890756 L12.9848739,10.0235294 L12.897479,10.0235294 C12.8907563,10.6655462 12.8403361,11.287395 12.6890756,11.8453782 L13.512605,12.0941176 C13.7915966,12.1781513 13.9798319,12.4403361 13.9630252,12.7294118 L13.8890756,14.0806723 C13.8689076,14.4168067 13.589916,14.6789916 13.2537815,14.6789916 L13.2201681,14.6789916 C12.8672269,14.6588235 12.5983193,14.3630252 12.6184874,14.0168067 L12.6655462,13.1563025 L12.1411765,12.9983193 C11.6268908,13.6571429 10.7798319,14.0739496 9.38823529,14.0739496 C7.99327731,14.0739496 7.14621849,13.6537815 6.63193277,12.9915966 L6.08739496,13.1529412 L6.13445378,14.010084 C6.1512605,14.3596639 5.88235294,14.6554622 5.53277311,14.6756303 L5.49915966,14.6756303 C5.16302521,14.6756303 4.88403361,14.4134454 4.86386555,14.0773109 L4.78991597,12.7260504 C4.77310924,12.4369748 4.96134454,12.1714286 5.24033613,12.087395 L6.08403361,11.8319328 C5.9394958,11.2773109 5.88571429,10.6554622 5.8789916,10.0168067 L5.79159664,10.0168067 L5.79159664,10.2823529 C5.79159664,10.6319328 5.50588235,10.9142857 5.15630252,10.9142857 C4.80336134,10.9142857 4.51764706,10.6319328 4.51764706,10.2823529 L4.51764706,9.38487395 C4.51764706,9.03529412 4.80336134,8.75294118 5.15630252,8.75294118 L5.92268908,8.75294118 C5.9697479,8.23529412 6.07058824,7.73109244 6.26218487,7.28067227 L5.24033613,6.97142857 C4.95798319,6.88739496 4.77310924,6.62521008 4.78991597,6.33277311 L4.86386555,4.98151261 C4.88403361,4.63193277 5.20336134,4.37983193 5.53277311,4.38655462 C5.88571429,4.40672269 6.1512605,4.70252101 6.13445378,5.05210084 L6.08739496,5.9092437 L6.64537815,6.07731092 C6.63529412,5.97647059 6.61848739,5.87563025 6.61848739,5.76806723 C6.61848739,3.78487395 8.56134454,3.78487395 9.39159664,3.78487395 C10.2218487,3.78487395 12.1647059,3.78487395 12.1647059,5.76806723 C12.1647059,5.87226891 12.1512605,5.9697479 12.1411765,6.06722689 L12.6655462,5.9092437 L12.6184874,5.0487395 C12.5983193,4.69915966 12.8705882,4.40336134 13.2201681,4.38655462 C13.5663866,4.40672269 13.8722689,4.63529412 13.8890756,4.98487395 L13.9630252,6.33613445 C13.9764706,6.62521008 13.7915966,6.88739496 13.512605,6.97142857 L12.5109244,7.27058824 C12.7058824,7.72436975 12.8067227,8.22857143 12.8537815,8.74957983 L13.6201681,8.74957983 L13.6201681,8.75966387 Z M9.35462185,7.75798319 C9.70756303,7.75798319 9.98991597,8.04033613 9.98991597,8.38991597 L9.98991597,11.7512605 C9.98991597,12.1008403 9.70420168,12.3831933 9.35462185,12.3831933 C9.00168067,12.3831933 8.71932773,12.1008403 8.71932773,11.7512605 L8.71932773,8.38991597 C8.71596639,8.04033613 9.00168067,7.75798319 9.35462185,7.75798319 Z" id="Buscar-analizar-virus-_2Regular"></path>
        </g>
    </g>
</svg>

<svg width="24" height="24" viewBox="0 0 24 24" xmlns="http://www.w3.org/2000/svg"><path d="M9.388 17.197c4.367 0 7.923-3.523 7.923-7.856 0-4.33-3.553-7.852-7.923-7.852-4.366 0-7.922 3.523-7.922 7.852.003 4.333 3.556 7.856 7.922 7.856zm14.02 5.216a.724.724 0 01-.517 1.24.73.73 0 01-.518-.211l-6.991-6.931a9.408 9.408 0 01-5.99 2.138c-5.187 0-9.389-4.168-9.389-9.311C.003 4.198 4.208.03 9.392.03c5.183 0 9.388 4.168 9.388 9.308 0 2.36-.894 4.507-2.353 6.151l6.981 6.924zM9.388 12.81c1.755 0 2.236-.642 2.236-2.988 0-1.472-.212-2.256-.71-2.629-.322-.238-.82-.356-1.526-.356-.709 0-1.21.118-1.533.363-.49.373-.702 1.16-.702 2.622 0 2.346.48 2.988 2.235 2.988zm.007-7.758c-1.5 0-1.5.303-1.5.723v.017c.424-.142.912-.219 1.493-.219a4.74 4.74 0 011.503.219c0-.01.003-.014.003-.02 0-.417 0-.72-1.499-.72zM13.62 8.76c.353 0 .639.282.639.632v.897c0 .35-.286.632-.639.632a.632.632 0 01-.635-.632v-.265h-.088c-.006.642-.057 1.263-.208 1.821l.824.25a.63.63 0 01.45.634l-.074 1.352a.637.637 0 01-.635.598h-.034a.631.631 0 01-.602-.662l.048-.86-.525-.159c-.514.66-1.361 1.076-2.753 1.076-1.395 0-2.242-.42-2.756-1.082l-.545.16.047.858a.637.637 0 01-.601.666h-.034a.637.637 0 01-.635-.599l-.074-1.35a.633.633 0 01.45-.64l.844-.255c-.145-.555-.198-1.177-.205-1.815h-.087v.265c0 .35-.286.632-.636.632a.635.635 0 01-.638-.632v-.897c0-.35.285-.632.638-.632h.767c.047-.518.148-1.022.34-1.472L5.24 6.97a.627.627 0 01-.45-.638l.074-1.351c.02-.35.34-.602.669-.595.353.02.618.316.601.665l-.047.857.558.168c-.01-.1-.027-.201-.027-.309 0-1.983 1.943-1.983 2.774-1.983.83 0 2.773 0 2.773 1.983 0 .104-.014.202-.024.3l.525-.159-.048-.86a.63.63 0 01.602-.662c.346.02.652.248.67.598l.073 1.351a.633.633 0 01-.45.635l-1.002.3c.195.453.296.958.343 1.479h.766v.01zM9.355 7.758c.353 0 .635.282.635.632v3.361c0 .35-.286.632-.635.632a.632.632 0 01-.636-.632V8.39a.63.63 0 01.636-.632z" fill="#5CB615" fill-rule="nonzero"/></svg>
